X: 3
T: Contentment Is Wealth
R: jig
M: 6/8
L: 1/8
K: Edor
GFG Eed | BAB EFG | FEF DdB | AFD Def |gfe edB | BAB dcd | BdB DFA | GED E2 :|gbe gbe | geg bag | fdd Add | fdf afd |gfe edB | BAB dcd | BdB DFA | GED E2 :|


Tune 1662	Setting 25887

